svgs/thin/arrow-up-1-9.svg

<svg xmlns="http://www.w3.org/2000/svg" viewBox="0 0 512 512"><!--! Font Awesome Pro 6.3.0 by @fontawesome - https://fontawesome.com License - https://fontawesome.com/license (Commercial License) Copyright 2023 Fonticons, Inc. --><path d="M352 208c-4.422 0-8 3.594-8 8s3.579 7.998 8 7.998L416 224c4.422 0 8-3.594 8-8S420.4 208 416 208h-24V40c0-2.781-1.438-5.344-3.797-6.812c-2.359-1.438-5.312-1.594-7.781-.3438l-32 16c-3.953 1.969-5.547 6.781-3.578 10.72c1.984 3.969 6.75 5.531 10.73 3.594L376 52.94V208H352zM133.9 34.48c-3.062-3.312-8.75-3.312-11.81 0L34.09 130.5c-2.969 3.252-2.75 8.314 .5 11.32c3.25 3 8.312 2.781 11.31-.5L120 60.47V471.1c0 4.408 3.595 8.001 8.001 8.001S136 476.4 136 471.1V60.47l74.1 80.85c1.596 1.719 3.752 2.594 5.908 2.594c1.938 0 3.875-.6875 5.406-2.094c3.25-3.002 3.469-8.064 .5-11.32L133.9 34.48zM376 264c-39.7 0-72 32.31-72 72s32.3 72 72 72c22.73 0 42.79-10.8 56-27.31V408c0 30.88-25.12 56-56 56H352c-4.422 0-8 3.594-8 8S347.6 480 352 480h24c39.7 0 72-32.31 72-72V336C448 296.3 415.7 264 376 264zM376 392c-30.88 0-56-25.12-56-56s25.12-56 56-56s56 25.12 56 56S406.9 392 376 392z"/></svg>

<svg xmlns="http://www.w3.org/2000/svg" viewBox="0 0 512 512"><!-- Font Awesome Pro 6.0.0-alpha2 by @fontawesome - https://fontawesome.com License - https://fontawesome.com/license (Commercial License) --><path d="M352 208C347.578 208 344 211.594 344 216S347.578 224 352 224H416C420.422 224 424 220.406 424 216S420.422 208 416 208H392V40C392 37.219 390.562 34.656 388.203 33.188C385.844 31.75 382.891 31.594 380.422 32.844L348.422 48.844C344.469 50.812 342.875 55.625 344.844 59.562C346.828 63.531 351.594 65.094 355.578 63.156L376 52.938V208H352ZM133.906 34.484C130.844 31.172 125.156 31.172 122.094 34.484L34.09 130.508C31.121 133.76 31.34 138.822 34.59 141.824C37.84 144.824 42.902 144.605 45.902 141.324L120 60.471V471.998C120 476.406 123.594 480 128 480S136 476.406 136 471.998V60.471L210.096 141.324C211.691 143.043 213.848 143.918 216.004 143.918C217.941 143.918 219.879 143.23 221.41 141.824C224.66 138.822 224.879 133.76 221.91 130.508L133.906 34.484ZM376 264C336.297 264 304 296.312 304 336S336.297 408 376 408C398.734 408 418.795 397.197 432 380.689V408C432 438.875 406.875 464 376 464H352C347.578 464 344 467.594 344 472S347.578 480 352 480H376C415.703 480 448 447.688 448 408V336C448 296.312 415.703 264 376 264ZM376 392C345.125 392 320 366.875 320 336S345.125 280 376 280S432 305.125 432 336S406.875 392 376 392Z"/></svg>
